src/images/svg/symbols/markets-stocks-and-indices/american-stocks/stocks-biogen-inc.svg

<svg width="32" height="32" viewBox="0 0 32 32" fill="none" xmlns="http://www.w3.org/2000/svg">
<path d="M0 16C0 7.16344 7.16344 0 16 0C24.8366 0 32 7.16344 32 16C32 24.8366 24.8366 32 16 32C7.16344 32 0 24.8366 0 16Z" fill="#F2F3F4"/>
<path d="M11.5513 22.0843C14.6322 21.1003 19.1018 19.2108 19.911 17.053C20.6292 15.138 17.8603 11.0493 15.3055 7.93945C11.7154 8.91905 9.07617 12.2033 9.07617 16.104C9.07617 18.439 10.0219 20.5532 11.5513 22.0843Z" fill="url(#paint0_radial_13222_34263)"/>
<path d="M18.6468 18.6523C16.8953 20.1217 13.8398 21.3526 11.5508 22.0836C13.0824 23.617 15.1994 24.5656 17.5379 24.5656C20.487 24.5656 23.0838 23.057 24.5986 20.7695C22.5646 21.417 20.2994 20.1711 18.6468 18.6523Z" fill="url(#paint1_linear_13222_34263)"/>
<path d="M24.5983 20.7696C22.5644 21.4171 20.2992 20.1712 18.6465 18.6524C19.2524 18.1441 19.7023 17.6071 19.9103 17.0525C20.0716 16.6222 20.0569 16.0822 19.9082 15.4682C20.3871 15.2722 20.9142 15.0382 21.492 14.759C23.3032 13.8835 24.3703 12.9133 24.9767 12.0664C25.6292 13.2663 25.9999 14.6416 25.9999 16.1034C25.9999 17.8279 25.4841 19.4319 24.5983 20.7696Z" fill="url(#paint2_linear_13222_34263)"/>
<path d="M19.908 15.4682C20.3869 15.2722 20.914 15.0382 21.4917 14.759C23.2777 13.8957 24.3401 12.9403 24.9508 12.1019C23.5311 9.42055 20.7125 7.59375 17.4672 7.59375C16.7036 7.59375 15.9635 7.69491 15.2598 7.88455C17.2535 10.3048 19.3909 13.3336 19.908 15.4682Z" fill="url(#paint3_linear_13222_34263)"/>
<path d="M14.7223 13.1772C14.2003 11.722 13.3936 10.3459 12.6977 9.34944C11.9384 8.19478 11.3058 7.43555 11.3058 7.43555C11.3058 7.43555 7.47797 9.17545 6.32331 13.0032C5.16864 16.831 7.47797 20.3583 7.47797 20.3583C7.47797 20.3583 8.63263 20.0103 10.0878 19.3776C11.195 18.9189 12.3971 18.2704 13.5044 17.4637C13.5044 17.4637 14.7223 16.657 15.007 15.6131C15.2443 14.5691 14.7223 13.1772 14.7223 13.1772Z" fill="url(#paint4_radial_13222_34263)"/>
<defs>
<radialGradient id="paint0_radial_13222_34263" cx="0" cy="0" r="1" gradientUnits="userSpaceOnUse" gradientTransform="translate(14.5324 14.969) scale(6.36513 6.32903)">
<stop stop-color="#496F93"/>
<stop offset="0.8595" stop-color="#6799CB"/>
</radialGradient>
<linearGradient id="paint1_linear_13222_34263" x1="14.6086" y1="25.0803" x2="21.6081" y2="18.0233" gradientUnits="userSpaceOnUse">
<stop stop-color="#C4CA80"/>
<stop offset="0.5048" stop-color="#DBE08C"/>
</linearGradient>
<linearGradient id="paint2_linear_13222_34263" x1="25.5463" y1="12.3609" x2="21.1402" y2="20.218" gradientUnits="userSpaceOnUse">
<stop stop-color="#9FBC6E"/>
<stop offset="0.4025" stop-color="#AFCE79"/>
</linearGradient>
<linearGradient id="paint3_linear_13222_34263" x1="23.28" y1="14.0903" x2="15.5325" y2="7.62933" gradientUnits="userSpaceOnUse">
<stop stop-color="#9EC382"/>
<stop offset="0.1641" stop-color="#83B06B"/>
<stop offset="0.3227" stop-color="#70A35A"/>
<stop offset="0.4324" stop-color="#699E54"/>
</linearGradient>
<radialGradient id="paint4_radial_13222_34263" cx="0" cy="0" r="1" gradientUnits="userSpaceOnUse" gradientTransform="translate(10.4972 13.9246) scale(5.59363)">
<stop stop-color="#E6F2F8"/>
<stop offset="0.0897934" stop-color="#D1E3F1"/>
<stop offset="0.279" stop-color="#ABC9E3"/>
<stop offset="0.4672" stop-color="#8DB4D9"/>
<stop offset="0.652" stop-color="#78A5D1"/>
<stop offset="0.8316" stop-color="#6B9CCD"/>
<stop offset="1" stop-color="#6799CB"/>
</radialGradient>
</defs>
</svg>

<svg width="32" height="32" fill="none" xmlns="http://www.w3.org/2000/svg"><path d="M0 16C0 7.163 7.163 0 16 0s16 7.163 16 16-7.163 16-16 16S0 24.837 0 16Z" fill="#F2F3F4"/><path d="M11.551 22.084c3.081-.984 7.55-2.873 8.36-5.031.718-1.915-2.05-6.004-4.606-9.114a8.466 8.466 0 0 0-3.754 14.145Z" fill="url(#a)"/><path d="M18.647 18.652c-1.752 1.47-4.807 2.7-7.096 3.432a8.436 8.436 0 0 0 5.987 2.482 8.455 8.455 0 0 0 7.06-3.796c-2.033.647-4.299-.599-5.951-2.118Z" fill="url(#b)"/><path d="M24.598 20.77c-2.034.647-4.299-.599-5.951-2.118.605-.508 1.055-1.045 1.263-1.6.162-.43.147-.97-.002-1.584.48-.196 1.006-.43 1.584-.709 1.811-.876 2.878-1.846 3.485-2.693A8.425 8.425 0 0 1 26 16.103a8.423 8.423 0 0 1-1.402 4.667Z" fill="url(#c)"/><path d="M19.908 15.468c.479-.196 1.006-.43 1.584-.709 1.786-.863 2.848-1.819 3.459-2.657a8.461 8.461 0 0 0-7.484-4.508c-.763 0-1.503.1-2.207.29 1.993 2.42 4.13 5.45 4.648 7.584Z" fill="url(#d)"/><path d="M14.722 13.177c-.522-1.455-1.328-2.831-2.024-3.828-.76-1.154-1.392-1.913-1.392-1.913s-3.828 1.74-4.983 5.567c-1.154 3.828 1.155 7.355 1.155 7.355s1.155-.348 2.61-.98a16.88 16.88 0 0 0 3.416-1.914s1.218-.807 1.503-1.85c.237-1.045-.285-2.437-.285-2.437Z" fill="url(#e)"/><defs><linearGradient id="b" x1="14.609" y1="25.08" x2="21.608" y2="18.023" gradientUnits="userSpaceOnUse"><stop stop-color="#C4CA80"/><stop offset=".505" stop-color="#DBE08C"/></linearGradient><linearGradient id="c" x1="25.546" y1="12.361" x2="21.14" y2="20.218" gradientUnits="userSpaceOnUse"><stop stop-color="#9FBC6E"/><stop offset=".403" stop-color="#AFCE79"/></linearGradient><linearGradient id="d" x1="23.28" y1="14.09" x2="15.533" y2="7.629" gradientUnits="userSpaceOnUse"><stop stop-color="#9EC382"/><stop offset=".164" stop-color="#83B06B"/><stop offset=".323" stop-color="#70A35A"/><stop offset=".432" stop-color="#699E54"/></linearGradient><radialGradient id="a" cx="0" cy="0" r="1" gradientUnits="userSpaceOnUse" gradientTransform="matrix(6.36513 0 0 6.32903 14.532 14.969)"><stop stop-color="#496F93"/><stop offset=".86" stop-color="#6799CB"/></radialGradient><radialGradient id="e" cx="0" cy="0" r="1" gradientUnits="userSpaceOnUse" gradientTransform="translate(10.497 13.925) scale(5.59363)"><stop stop-color="#E6F2F8"/><stop offset=".09" stop-color="#D1E3F1"/><stop offset=".279" stop-color="#ABC9E3"/><stop offset=".467" stop-color="#8DB4D9"/><stop offset=".652" stop-color="#78A5D1"/><stop offset=".832" stop-color="#6B9CCD"/><stop offset="1" stop-color="#6799CB"/></radialGradient></defs></svg>
